!!!COM: Palestrina, Giovanni Perluigi da
!!!OPR: Missa O virgo simul et mater
!!!OTL: Sanctus
**kern	**kern	**kern	**kern	**kern
*Ibass	*Itenor	*Icalto	*Icalto	*Icant
!Bassus	!Tenor	!Altus 2	!Altus 1	!Cantus
*clefF4	*clefGv2	*clefG2	*clefG2	*clefG2
*k[b-]	*k[b-]	*k[b-]	*k[b-]	*k[b-]
*G:dor	*G:dor	*G:dor	*G:dor	*G:dor
*M4/2	*M4/2	*M4/2	*M4/2	*M4/2
=1	=1	=1	=1	=1
0r	1G	0r	1.d	1g
.	1c	.	.	1g
.	.	.	2e	.
=2	=2	=2	=2	=2
0r	2B-	0r	2f	1.dd
.	2G	.	2g	.
.	1d	.	2.a	.
.	.	.	.	2ff
.	.	.	4b-	.
=3	=3	=3	=3	=3
0r	2.A	0r	2cc	2ee
.	.	.	2.a	2cc
.	4B-	.	.	.
.	1c	.	.	1ee
.	.	.	4g	.
.	.	.	[2g	.
=4	=4	=4	=4	=4
1.D	1.A	1d	2g]	0dd
.	.	.	4f	.
.	.	.	4e	.
.	.	1d	2f	.
2G	2B-	.	2d	.
=5	=5	=5	=5	=5
2F	2c	1.a	2.f	0r
2D	2d	.	.	.
.	.	.	8e	.
.	.	.	8d	.
1A	1e	.	1c	.
.	.	2cc	.	.
=6	=6	=6	=6	=6
0G	2.g	2b-	1d	0r
.	.	2g	.	.
.	4f	.	.	.
.	4e	1b-	2.g	.
.	4d	.	.	.
.	[2d	.	.	.
.	.	.	4f	.
=7	=7	=7	=7	=7
2.A	2d]	1.a	1e	1r
.	2c#	.	.	.
4G	.	.	.	.
2F	1d	.	1d	2r
2G	.	2b-	.	[2g
=8	=8	=8	=8	=8
1C	1r	1g	1e	2g]
.	.	.	.	2cc
1r	1G	2r	1d	2b-
.	.	[2d	.	2g
=9	=9	=9	=9	=9
1r	1G	2d]	1b-	1dd
.	.	2g	.	.
1D	[1d	2f	4a	2r
.	.	.	4g	.
.	.	2d	4f	[2a
.	.	.	4e	.
=10	=10	=10	=10	=10
1D	2d]	1a	1d	2a]
.	2f	.	.	2dd
[1A	2e	2a	1r	2cc
.	2c	[2cc	.	4a
.	.	.	.	4b-
=11	=11	=11	=11	=11
2A]	1e	4cc]	1r	4cc
.	.	4b-	.	4dd
2c	.	4g	.	4ee
.	.	4a	.	4cc
2B-	2d	1b-	1d	2.dd
2G	[2B-	.	.	.
.	.	.	.	4cc
=12	=12	=12	=12	=12
1B-	4B-]	1f	1d	4dd
.	4c	.	.	4ee
.	1d	.	.	1ff
[1A	.	2r	[1a	.
.	4c	[2cc	.	4ee
.	4B-	.	.	4dd
=13	=13	=13	=13	=13
2A]	1A	4cc]	2a]	2ee
.	.	4b-	.	.
2F	.	2a	2cc	1ff
2B-	2d	1g	2b-	.
2c	2e	.	2g	[2ee
=14	=14	=14	=14	=14
2d	2f	2f	1b-	4ee]
.	.	.	.	4dd
2G	2g	2d	.	1dd
1A	2e	2r	1a	.
.	[2a	2A	.	2cc#
=15	=15	=15	=15	=15
2r	4a]	1B-	1d	1dd
.	4a	.	.	.
2.d	2g	.	.	.
.	2f	1A	2.a	1r
4d	.	.	.	.
2c	2e	.	.	.
.	.	.	4a	.
=16	=16	=16	=16	=16
2B-	2d	2r	2g	0r
2A	2c	2f	2a	.
2G	2.d	2g	2b-	.
2F#	.	2a	[2a	.
.	4c	.	.	.
=17	=17	=17	=17	=17
1G	1B-	1d	2a]	2r
.	.	.	2g	2.gg
1D	1A	2d	1a	.
.	.	.	.	4gg
.	.	2a	.	2ff
=18	=18	=18	=18	=18
0r	2c	2g	0r	2ee-
.	2d	4f	.	2dd
.	.	4g	.	.
.	2f	4a	.	2cc
.	.	4f	.	.
.	2g	[2b-	.	2b-
=19	=19	=19	=19	=19
1r	2.f	4b-]	1r	1cc
.	.	8a	.	.
.	.	8g	.	.
.	.	2a	.	.
.	4f	.	.	.
2r	2B-	1b-	2r	[1dd
[2G	2d	.	[2b-	.
=20	=20	=20	=20	=20
4G]	2G	0r	4b-]	1dd]
4G	.	.	4b-	.
2F	2A	.	2a	.
2E-	2.B-	.	2g	1r
2D	.	.	2f	.
.	8A	.	.	.
.	8G	.	.	.
=21	=21	=21	=21	=21
2C	2A	1r	2e-	2r
2BB-	2B-	.	2d	2.dd
1C	1G	2r	1e-	.
.	.	.	.	4dd
.	.	[2g	.	2cc
=22	=22	=22	=22	=22
1D	2r	4g]	1d	2b-
.	.	4g	.	.
.	2A	2f	.	2a
1r	2c	2e-	2r	2g
.	2d	2d	2a	2f
=23	=23	=23	=23	=23
1r	2e-	2c	2cc	1.g
.	2d	2B	2dd	.
1C	4e-	2c	4cc	.
.	4d	.	4b-	.
.	4c	2e-	4a	[2a
.	4B-	.	4g	.
=24	=24	=24	=24	=24
0D	2A	0d	2f#	2a]
.	2G	.	2g	2.dd
.	1A	.	2g	.
.	.	.	.	4cc
.	.	.	2f#	2a
=25	=25	=25	=25	=25
1G	2G	0d	2g	1b
.	2G	.	2g	.
2r	2G	.	2g	2r
2G	2G	.	2g	[2dd
=26	=26	=26	=26	=26
2G	1g	2r	1b-	2dd]
2G	.	2g	.	2dd
1d	1f	2a	2a	1ff
.	.	2b-	2f	.
=27	=27	=27	=27	=27
1c	1r	1cc	2g	2ee
.	.	.	2a	2cc
1r	2r	1g	2b-	2dd
.	2c	.	4a	2ee
.	.	.	4g	.
=28	=28	=28	=28	=28
0r	2d	1r	2f	2ff
.	2e	.	2g	4ee
.	.	.	.	4dd
.	4f	2r	2a	2cc
.	4e	.	.	.
.	4d	2f	2a	[2dd
.	4c	.	.	.
=29	=29	=29	=29	=29
0r	2B-	2g	2d	2dd]
.	2A	2a	2e	2cc
.	2G	2b-	2g	[1dd
.	2F#	[2a	2a	.
=30	=30	=30	=30	=30
1r	1G	2a]	1b-	1dd]
.	.	1g	.	.
2r	2.d	.	1a	1dd
[2d	.	2f#	.	.
.	4c	.	.	.
=31	=31	=31	=31	=31
2d]	2B-	0g	2r	1r
1e-	2c	.	2g	.
.	1G	.	[1b-	2r
2d	.	.	.	[2dd
=32	=32	=32	=32	=32
2B-	0r	0r	2b-]	2dd]
1c	.	.	2g	1ee-
.	.	.	4a	.
.	.	.	4g	.
2B-	.	.	[2g	2dd
=33	=33	=33	=33	=33
1A	1r	1a	2g]	2.cc
.	.	.	2f#	.
.	.	.	.	4dd
1G	2r	[1b-	1g	2ee-
.	2d	.	.	[2dd
=34	=34	=34	=34	=34
0r	1.f	2b-]	2d	2dd]
.	.	2a	2a	4cc
.	.	.	.	4b-
.	.	2f	[1cc	4a
.	.	.	.	4b-
.	2e	[2g	.	4cc
.	.	.	.	4dd
=35	=35	=35	=35	=35
0r	2c	2g]	2cc]	2ee
.	1d	4f	2a	1ff
.	.	4e	.	.
.	.	2d	4b-	.
.	.	.	4a	.
.	2c	2e	[2a	2ee
=36	=36	=36	=36	=36
0r	1B-	4f	2a]	1dd
.	.	4e	.	.
.	.	1d	2g	.
.	[1A	.	[1a	2r
.	.	4c	.	[2ee
.	.	4B	.	.
=37	=37	=37	=37	=37
1A	1A]	1c	1a]	2ee]
.	.	.	.	1ff
[1B-	2r	1d	2.f	.
.	2d	.	.	2dd
.	.	.	4e	.
=38	=38	=38	=38	=38
2B-]	1.f	1r	2d	2b-
2A	.	.	4c	1cc
.	.	.	4B-	.
2F	.	1d	2A	.
[2G	2d	.	2G	2b-
=39	=39	=39	=39	=39
2G]	2B-	2d	2d	2g
2F	2.c	2A	2f	2.a
1E-	.	2c	1g	.
.	4B-	.	.	4g
.	2G	2c	.	[2g
=40	=40	=40	=40	=40
0D	0A	1d	1r	2g]
.	.	.	.	4f#
.	.	.	.	4e
.	.	1d	1a	1f#
=41	=41	=41	=41	=41
1G	[0G	2r	2.b-	[0g
.	.	2d	.	.
.	.	.	4a	.
1G	.	2e-	2g	.
.	.	2d	2f	.
=42	=42	=42	=42	=42
0C	1G_	2.c	2.e-	1g_
.	.	4d	4d	.
.	1G_	1e-	1c	1g_
=43	=43	=43	=43	=43
0G	0G]	0d	0B	0g]
==	==	==	==	==
*-	*-	*-	*-	*-
!!!CDT: 1525/^1526/-1594/2/2
!!!OCY: Italia
!!!AGN: Mass (Parody)
!!!AST: renaissance, vocal
!!!ASW: Motet 1572 (Palestrina)
!!!PWK: Masses, Book 10
!!!RNB: Cadence finals: D
!!!YOR: Le Opere Complete, v. 27, p. 89
!!!YOO: Rome, Italy: Fratelli Scalera
!!!END: 1992//
!!!EED: John Miller
!!!YEC: Copyright 2000, John Miller
!!!YEN: United States of America
!!!YEM: Rights to all derivative electronic formats reserved.
!!!YEM: Refer to licensing agreement for further details.
!!!YEM: This file must be accompanied by the licensing agreement.
!!!YEM: A copy of the licensing agreement may be found at http://www.music-cog.ohio-state.edu/HumdrumDatabases/Palestrina/license.txt
!!!EMD: converted to Humdrum by Bret Aarden
